!!!COM: Johannes Brahms
!!!CNT: Deutscher
!!!TXO: Deutsche
!!!OTL: Sehnsucht
!!!OPS: Op. 49
!!!ONM: No. 3
!!!LYR: Aus dem Bo2hmischen
!!!ONB: Original key: Ab Major
!!!ENC: Ayako Kataoka
!!!EED: Leigh VanHandel
!!!YOR: C.F. Peters, Brahms Lieder fu2r eine Singstimme mit Klavierbegleitung, Band III, ausgabe fu2r tiefere Stimme
!!!ODT: 1868/
!!NB: Vocal melody and text only encoded.
**kern	**silbe
*clefG2	*
*k[b-]	*
*M3/4	*
*MM[adagio]	*
!! tempo indication: langsam
=3	=3
{(4.c	{Hin-
8f)	|
(8a	-ter
8c)	|
=4	=4
2c	je-
4g	-nen
=5	=5
(4.c	dich-
8f)	|
(8a-	-ten
8c)	|
=6	=6
2dd-	Wa2l-
4a-	-dern
=7	=7
2an	weilst
4cc}	du,}
=8	=8
{(4ff	{mei-
4ee)	|
4a	-ne
=9	=9
(4dd	Su2ss-
4cc)	|
4f	-ge-
=10	=10
2.bn	-lieb-
=11	=11
2b-}	-te,}
4r	.
=12	=12
*M4/4	*
{2a	{weit,
2f	ach
=13	=13
2.cc}	weit!}
4r	.
=14	=14
{(2dd-	{Weit,
4f)	|
4cc	ach
=15	=15
(2ff	weit!
4bn)}	|}
4r	.
=16	=16
*M3/4	*
{(4.ee	{Ber-
8dd)	|
8b-	-stet,
8g	ihr
=17	=17
2f	Fel-
4e}	-sen,}
=18	=18
{(4.dd	{eb-
8cc)	|
8a	-net
8f	euch,
=19	=19
2e	Ta2-
4d}	-ler,}
=20	=20
{2d	{dass
8e	ich
8f	er-
=21	=21
2g	-se-
4f}	-he,}
=22	=22
{(4.d#	{dass
8e)	|
8f#	ich
8g	er-
=23	=23
2cc	-spa2-
4b-}	-he}
=24	=24
4r	.
{4.a	{mei-
8a	-ne
=25	=25
(8a	fer-
8bn)	|
4.b}	-ne,}
8r	.
=26	=26
{(4.bn	{mei-
8cc)	|
(8cc	-ne
8ff)	|
=27	=27
(4ff	fer-
4dd)	|
4b-	-ne
=28	=28
(4dd	su2-
4b-)	|
4g	-sse
=29	=29
(2f	Maid!
4e)}	|}
=30	=30
4r	.
8r	.
{8g	{dass
8f#	ich
8g	er-
=31	=31
2cc	-se
4b-	-he,
=32	=32
(4.g#	dass
8a)	|
8bn	ich
8cc	er-
=33	=33
2ff	-spa2-
4ee-}	-he}
=34	=34
4r	.
{4.dd-	{mei-
8dd-	-ne
=35	=35
(8ee-	fer-
8dd-)	|
4dd-}	-ne,}
4r	.
=36	=36
4r	.
{4.dd-	{mei-
8cc	-ne
=37	=37
(8cc	su2-
8b-)	|
4b-}	-sse,}
4r	.
=38	=38
{2a	{mei-
4g	-ne
=39	=39
(4f	fer-
4b-)	|
4dd	-ne
=40	=40
2ff	su2-
4a	-sse,
=41	=41
2cc	su2-
4g	-sse
=42	=42
4a}	Maid!}
4r	.
4r	.
*-	*-
